svgs/sharp-solid/joint.svg

<svg xmlns="http://www.w3.org/2000/svg" viewBox="0 0 640 512"><!--! Font Awesome Pro 6.6.0 by @fontawesome - https://fontawesome.com License - https://fontawesome.com/license (Commercial License) Copyright 2024 Fonticons, Inc. --><path d="M384 0l64 0 0 43c0 38.2 15.2 74.8 42.2 101.8l21 21c21 21 32.8 49.5 32.8 79.2l0 43-64 0 0-43c0-12.7-5.1-24.9-14.1-33.9l-21-21C405.9 151.1 384 98.1 384 43l0-43zM640 288l-64 0 0-43c0-38.2-15.2-74.8-42.2-101.8l-21-21c-21-21-32.8-49.5-32.8-79.2l0-43 64 0 0 43c0 12.7 5.1 24.9 14.1 33.9l21 21c39 39 60.9 91.9 60.9 147.1l0 43zM0 432s89.6-64 234.6-77.5L365.8 512 288 512C112 512 0 432 0 432zm464 80l-56.5 0L274.3 352.2c4.5-.1 9.1-.2 13.7-.2l48 0 56.5 0L525.8 512 464 512zm103.5 0L434.2 352 640 352l0 160-16 0-56.5 0z"/></svg>

<svg xmlns="http://www.w3.org/2000/svg" viewBox="0 0 640 512"><!--! Font Awesome Pro 6.4.0 by @fontawesome - https://fontawesome.com License - https://fontawesome.com/license (Commercial License) Copyright 2023 Fonticons, Inc. --><path d="M384 0h64V43c0 38.2 15.2 74.8 42.2 101.8l21 21c21 21 32.8 49.5 32.8 79.2v43H480V245c0-12.7-5.1-24.9-14.1-33.9l-21-21C405.9 151.1 384 98.1 384 43V0zM640 288H576V245c0-38.2-15.2-74.8-42.2-101.8l-21-21c-21-21-32.8-49.5-32.8-79.2V0h64V43c0 12.7 5.1 24.9 14.1 33.9l21 21c39 39 60.9 91.9 60.9 147.1v43zM0 432s89.6-64 234.6-77.5L365.8 512H288C112 512 0 432 0 432zm464 80H407.5L274.3 352.2c4.5-.1 9.1-.2 13.7-.2h48 56.5L525.8 512H464zm103.5 0L434.2 352H640V512H624 567.5z"/></svg>
